X: 27582
T: Monsignor's Blessing, The
R: reel
M: 4/4
K: Dmajor
DE|F2 FD EA, ~A,2|DEFD EA, ~A,2|DFEF (3DED dB|AFEG FDDE|
F2 FD EA, ~A,2|DEFD EA, ~A,2|DFEF D2 dB|AFEG FD D2||
dcdf ecAd|(3Bcd Ad BdAc|dcdf ecAd|(3Bcd ec d3 A|
dcdf ecAd|(3Bcd Ad BdAc|dcdf e2 ed|cdec dBAG||

